icons/1_Primary/Star Wars The Old Republic.svg

<svg xmlns="http://www.w3.org/2000/svg" viewBox="0 0 1024 1024">
   <circle cx="512" cy="512" r="512" style="fill:#c7a247"/>
   <path d="M521.4 285.8c23.9 14.8 47.6 29.7 71.5 44.5-2.4 3.8-4.7 7.6-7.2 11.4-12-6.9-23.9-13.9-35.9-20.8-3.8 36.1-8 72.1-11.7 108.2 16 9.4 32.1 18.6 48.1 27.9 29.3-21.4 58.6-42.8 87.8-64.2-12-6.9-23.9-13.9-35.9-20.8 2.1-4 4.1-8 6.2-11.9 24.7 13.3 49.5 26.5 74.2 39.8-.9 28.1-1.9 56.2-2.8 84.2-4.4-.2-8.9-.3-13.3-.5v-41.5c-33.2 14.6-66.4 29.3-99.6 43.9v55.2c33.2 14.6 66.4 29.3 99.6 43.9v-41.5c4.4-.2 8.9-.3 13.3-.5 1 28.1 2 56.2 2.8 84.3-24.8 13.2-49.5 26.5-74.3 39.7-2-4-4.2-7.9-6.2-12 12-6.9 23.9-13.8 35.9-20.7-29.4-21.6-58.9-43.1-88.3-64.7-16.1 9.3-32.1 18.6-48.2 27.9l12.3 108.6c12-6.9 23.9-13.9 35.9-20.8 2.4 3.8 4.8 7.6 7.1 11.4-23.7 14.8-47.3 29.7-71 44.5l-.3-455.5zm-23.2-53.3c113.7-7.1 226.8 63.2 270.7 168.3 46.2 102.9 21.2 232.2-60 310.4C630 791.4 501 815 398.8 768.2c-101.9-43.6-171.1-152.4-166.6-263.3 1.2-113.3 79.2-220.2 186.2-256.7 25.7-9.1 52.6-14.4 79.8-15.7zM508 260c-108.6.4-210 80.3-236.8 185.3-28.2 98.9 12.7 212.1 97.4 270.3C455.4 779 583 776.5 667 709.1c82.2-61.8 117.9-176.7 85.5-274.3C721.7 333.2 620.6 258.5 514.3 260H508zm-118.7 55.2c15-10 31.7-17.4 48.9-22.8-33.1 16.9-63.6 45.4-71.4 83-7.3 31 5.8 63.3 27.2 85.6 12.9 15.2 34.4 24.1 40.1 44.6 1 20 .4 40.2.8 60.2-.2 8.6 4 22.8-9.9 17.7-37.1-3.1-68.4-29.6-85-61.8-22.7-39.6-23.1-89-8.8-131.5 10.3-30.4 31-57.4 58.1-75zm84.2 43.3c7.7-8.5-8.4 10.7-7.3 16.7-5.4 21.9 6.8 47.3 28.1 55.5 16.3 7.8 7.8 28.2 9.9 42.3v267.9c-42-.5-84.7-13.2-118.4-38.6 18-3.3 35.1-13 46.1-27.8-20.2 13.6-48.5 20.1-70 5.3-28.5-19.3-45.4-50.6-61.5-80.1 19.8 20.6 41.5 42.9 70.2 50.1 21 2.5 42.4 1.5 63.2-2.2 19.7 2.1 25.2 24.2 33.7 38.7 9.3 5 10.5-19.2 14.2-26.5 11.1-46.3 13.1-94.3 12-141.7-.3-27.1-5.9-55.6-24.9-76.1-6.5-13.7-32.1-8.9-22.3-27.2 4.6-20.4 13.3-40.3 27-56.3zm35.3 1.9c.4-.1.8-.1 1.2-.2.2 2 .1 4 .1 6.1v43c0 2 .1 3.9-.2 5.9-.4 0-.8 0-1.2-.1-1.1-4.2-1.9-8.5-3-12.8-.4-1.7-.7-3.5-1.2-5.2-1.9-.3-3.9-.2-5.8-.2h-17.1c-1.9 0-3.8.1-5.6 0 0-.4-.3-1 .2-1.3 1.4-.7 3.1-1 4.6-1.5 3.9-1.3 7.8-2.4 11.6-3.7 1.6-.5 3.3-.8 4.7-1.7 0-.6 0-1.3-.1-1.9-1.4-.6-2.9-1-4.3-1.5-3.5-1.2-7.1-2.2-10.6-3.4-2-.7-4.1-1.1-6.1-2 0-.4-.1-.8-.1-1.2 5.7-.2 11.5.1 17.3-.1 3.8-.1 7.6.1 11.4-.1.1-.4.3-.9.4-1.3 1.2-5.8 2.6-11.3 3.8-16.8zm-203.3 50.5c1.9-4 5.1-10.5 2.7-2.5-8.5 43-3.3 90.2 20.9 127.4 15.8 21.8 36.7 41.4 63.1 48.9 12.4 4.2 27.5 4 36.5 15.1 8.3 9.2 12.8 21.5 14.1 33.7-27.5 12.8-60.5 9.9-86.8-4.6-33.1-16.4-54.4-49.5-64.2-84.2-7.3-24-9.5-49.4-5.3-74.2 3.3-20.6 10-40.7 19-59.6zm0 0" style="fill:#fff"/>
</svg>

<svg width="1024" height="1024" viewBox="0 0 1024 1024" fill="none" xmlns="http://www.w3.org/2000/svg">
<g clip-path="url(#clip0_2_3555)">
<path d="M512 1024C794.77 1024 1024 794.77 1024 512C1024 229.23 794.77 0 512 0C229.23 0 0 229.23 0 512C0 794.77 229.23 1024 512 1024Z" fill="#F9DE81"/>
<path d="M521.4 285.8C545.3 300.6 569 315.5 592.9 330.3C590.5 334.1 588.2 337.9 585.7 341.7C573.7 334.8 561.8 327.8 549.8 320.9C546 357 541.8 393 538.1 429.1C554.1 438.5 570.2 447.7 586.2 457C615.5 435.6 644.8 414.2 674 392.8C662 385.9 650.1 378.9 638.1 372C640.2 368 642.2 364 644.3 360.1C669 373.4 693.8 386.6 718.5 399.9C717.6 428 716.6 456.1 715.7 484.1C711.3 483.9 706.8 483.8 702.4 483.6V442.1C669.2 456.7 636 471.4 602.8 486V541.2C636 555.8 669.2 570.5 702.4 585.1V543.6C706.8 543.4 711.3 543.3 715.7 543.1C716.7 571.2 717.7 599.3 718.5 627.4C693.7 640.6 669 653.9 644.2 667.1C642.2 663.1 640 659.2 638 655.1C650 648.2 661.9 641.3 673.9 634.4C644.5 612.8 615 591.3 585.6 569.7C569.5 579 553.5 588.3 537.4 597.6L549.7 706.2C561.7 699.3 573.6 692.3 585.6 685.4C588 689.2 590.4 693 592.7 696.8C569 711.6 545.4 726.5 521.7 741.3L521.4 285.8ZM498.2 232.5C611.9 225.4 725 295.7 768.9 400.8C815.1 503.7 790.1 633 708.9 711.2C630 791.4 501 815 398.8 768.2C296.9 724.6 227.7 615.8 232.2 504.9C233.4 391.6 311.4 284.7 418.4 248.2C444.1 239.1 471 233.8 498.2 232.5ZM508 260C399.4 260.4 298 340.3 271.2 445.3C243 544.2 283.9 657.4 368.6 715.6C455.4 779 583 776.5 667 709.1C749.2 647.3 784.9 532.4 752.5 434.8C721.7 333.2 620.6 258.5 514.3 260H508ZM389.3 315.2C404.3 305.2 421 297.8 438.2 292.4C405.1 309.3 374.6 337.8 366.8 375.4C359.5 406.4 372.6 438.7 394 461C406.9 476.2 428.4 485.1 434.1 505.6C435.1 525.6 434.5 545.8 434.9 565.8C434.7 574.4 438.9 588.6 425 583.5C387.9 580.4 356.6 553.9 340 521.7C317.3 482.1 316.9 432.7 331.2 390.2C341.5 359.8 362.2 332.8 389.3 315.2ZM473.5 358.5C481.2 350 465.1 369.2 466.2 375.2C460.8 397.1 473 422.5 494.3 430.7C510.6 438.5 502.1 458.9 504.2 473V740.9C462.2 740.4 419.5 727.7 385.8 702.3C403.8 699 420.9 689.3 431.9 674.5C411.7 688.1 383.4 694.6 361.9 679.8C333.4 660.5 316.5 629.2 300.4 599.7C320.2 620.3 341.9 642.6 370.6 649.8C391.6 652.3 413 651.3 433.8 647.6C453.5 649.7 459 671.8 467.5 686.3C476.8 691.3 478 667.1 481.7 659.8C492.8 613.5 494.8 565.5 493.7 518.1C493.4 491 487.8 462.5 468.8 442C462.3 428.3 436.7 433.1 446.5 414.8C451.1 394.4 459.8 374.5 473.5 358.5ZM508.8 360.4C509.2 360.3 509.6 360.3 510 360.2C510.2 362.2 510.1 364.2 510.1 366.3V409.3C510.1 411.3 510.2 413.2 509.9 415.2C509.5 415.2 509.1 415.2 508.7 415.1C507.6 410.9 506.8 406.6 505.7 402.3C505.3 400.6 505 398.8 504.5 397.1C502.6 396.8 500.6 396.9 498.7 396.9H481.6C479.7 396.9 477.8 397 476 396.9C476 396.5 475.7 395.9 476.2 395.6C477.6 394.9 479.3 394.6 480.8 394.1C484.7 392.8 488.6 391.7 492.4 390.4C494 389.9 495.7 389.6 497.1 388.7C497.1 388.1 497.1 387.4 497 386.8C495.6 386.2 494.1 385.8 492.7 385.3C489.2 384.1 485.6 383.1 482.1 381.9C480.1 381.2 478 380.8 476 379.9C476 379.5 475.9 379.1 475.9 378.7C481.6 378.5 487.4 378.8 493.2 378.6C497 378.5 500.8 378.7 504.6 378.5C504.7 378.1 504.9 377.6 505 377.2C506.2 371.4 507.6 365.9 508.8 360.4ZM305.5 410.9C307.4 406.9 310.6 400.4 308.2 408.4C299.7 451.4 304.9 498.6 329.1 535.8C344.9 557.6 365.8 577.2 392.2 584.7C404.6 588.9 419.7 588.7 428.7 599.8C437 609 441.5 621.3 442.8 633.5C415.3 646.3 382.3 643.4 356 628.9C322.9 612.5 301.6 579.4 291.8 544.7C284.5 520.7 282.3 495.3 286.5 470.5C289.8 449.9 296.5 429.8 305.5 410.9Z" fill="white"/>
</g>
<defs>
<clipPath id="clip0_2_3555">
<rect width="1024" height="1024" fill="white"/>
</clipPath>
</defs>
</svg>
